assets/svg/github.svg

<svg width="38" height="45" viewBox="0 0 38 45" fill="none" xmlns="http://www.w3.org/2000/svg">
<path d="M37.9957 14.6914C37.9957 11.4475 36.7095 8.83354 34.6204 6.85773C34.9867 5.73893 35.468 3.25179 34.1328 0.0651369C34.1328 0.0651369 31.7605 -0.646644 26.4068 2.75477C24.2599 2.24852 22.0564 1.99711 19.8458 2.00617C17.3883 2.00617 14.901 2.29866 12.5862 2.90612C7.05793 -0.667098 4.62175 0.0610465 4.62175 0.0610465C3.02886 3.8388 4.01057 6.63684 4.31297 7.33021C2.43259 9.24466 1.30181 11.6929 1.30181 14.6812C1.30181 16.9536 1.57439 18.9744 2.2388 20.7436L2.9309 22.2408C4.80276 25.542 8.48046 27.6712 15.0202 28.3421C14.096 28.9332 13.1356 29.9354 12.7587 31.6392C11.4937 32.2119 7.48809 33.615 5.08599 29.7084C5.08599 29.7084 3.73799 27.3603 1.16339 27.1824C1.16339 27.1824 -1.33668 27.1476 0.99303 28.6591C0.99303 28.6591 2.65832 29.4097 3.81679 32.2139C3.81679 32.2139 5.31811 37.0041 12.5777 35.4721V40.4157C12.5777 40.4157 12.4158 42.1686 10.7314 42.7536C10.7314 42.7536 9.73262 43.3917 10.8038 43.7701C10.8038 43.7701 15.4994 44.126 15.4994 40.4894V35.0835C15.4994 35.0835 15.3077 32.9421 16.413 32.2119V41.0723C16.413 41.0723 16.3448 43.1811 15.1863 43.9787C15.1863 43.9787 14.4155 45.3 16.1084 44.936C16.1084 44.936 19.3389 44.5044 19.4816 40.9128L19.5561 31.948H20.3292L20.3994 40.9128C20.5613 44.488 23.7854 44.936 23.7854 44.936C25.4741 45.3021 24.699 43.9787 24.699 43.9787C23.549 43.1831 23.466 41.0723 23.466 41.0723V32.2835C24.5733 33.1057 24.3944 35.0835 24.3944 35.0835V40.4894C24.3944 44.124 29.0794 43.7701 29.0794 43.7701C30.1548 43.3897 29.1561 42.7515 29.1561 42.7515C27.4673 42.1666 27.3098 40.4137 27.3098 40.4137V33.3348C27.3098 30.5817 26.0874 29.1295 24.8885 28.3543C31.8669 27.7039 35.2061 25.5563 36.7542 22.2387C36.7223 22.294 37.3079 20.7538 37.3079 20.7538C37.8403 18.9969 38 16.9597 38 14.6935H37.9957V14.6914Z" fill="#F6F5F5"/>
</svg>

<svg fill="none" viewBox="0 0 38 45" xmlns="http://www.w3.org/2000/svg">
<path d="m37.996 14.691c0-3.2439-1.2862-5.8579-3.3753-7.8337 0.3663-1.1188 0.8476-3.6059-0.4876-6.7926 0 0-2.3723-0.71178-7.726 2.6896-2.1469-0.50625-4.3504-0.75766-6.561-0.7486-2.4575 0-4.9448 0.29249-7.2596 0.89995-5.5283-3.5732-7.9644-2.8451-7.9644-2.8451-1.5929 3.7778-0.61118 6.5758-0.30878 7.2692-1.8804 1.9144-3.0112 4.3627-3.0112 7.351 0 2.2724 0.27258 4.2932 0.93699 6.0624l0.6921 1.4972c1.8719 3.3012 5.5496 5.4304 12.089 6.1013-0.9242 0.5911-1.8846 1.5933-2.2615 3.2971-1.265 0.5727-5.2706 1.9758-7.6727-1.9308 0 0-1.348-2.3481-3.9226-2.526 0 0-2.5001-0.0348-0.17036 1.4767 0 0 1.6653 0.7506 2.8238 3.5548 0 0 1.5013 4.7902 8.7609 3.2582v4.9436s-0.1619 1.7529-1.8463 2.3379c0 0-0.99878 0.6381 0.0724 1.0165 0 0 4.6956 0.3559 4.6956-3.2807v-5.4059s-0.1917-2.1414 0.9136-2.8716v8.8604s-0.0682 2.1088-1.2267 2.9064c0 0-0.7708 1.3213 0.9221 0.9573 0 0 3.2305-0.4316 3.3732-4.0232l0.0745-8.9648h0.7731l0.0702 8.9648c0.1619 3.5752 3.386 4.0232 3.386 4.0232 1.6887 0.3661 0.9136-0.9573 0.9136-0.9573-1.15-0.7956-1.233-2.9064-1.233-2.9064v-8.7888c1.1073 0.8222 0.9284 2.8 0.9284 2.8v5.4059c0 3.6346 4.685 3.2807 4.685 3.2807 1.0754-0.3804 0.0767-1.0186 0.0767-1.0186-1.6888-0.5849-1.8463-2.3378-1.8463-2.3378v-7.0789c0-2.7531-1.2224-4.2053-2.4213-4.9805 6.9784-0.6504 10.318-2.798 11.866-6.1156-0.0319 0.0553 0.5537-1.4849 0.5537-1.4849 0.5324-1.7569 0.6921-3.7941 0.6921-6.0603h-0.0043v-0.0021z" fill="#F6F5F5"/>
</svg>
